pp3/auto_matched_curve_iso_low.pp3
[Exposure]
Auto=false
HistogramMatching=true

[HLRecovery]
Enabled=true
Method=Blend

[LensProfile]
LcMode=lfauto
UseDistortion=true
UseVignette=true
UseCA=false

[Color Management]
ToneCurve=false
ApplyLookTable=true
ApplyBaselineExposureOffset=true
ApplyHueSatMap=true
DCPIlluminant=0

[RAW]
CA=true
HotPixelFilter=true

[PostDemosaicSharpening]
Enabled=true
