pp3/contrast_saturation.pp3
[Version]
AppVersion=5.3-544-gc2e7d924
Version=330

[Exposure]
Contrast=8
Saturation=5
