pp3/standard_film_curve_iso_medium.pp3
[Exposure]
Auto=false
HistogramMatching=false
CurveMode=FilmLike
Curve=1;0;0;0.11;0.089999999999999997;0.32000000000000001;0.42999999999999999;0.66000000000000003;0.87;1;1;

[HLRecovery]
Enabled=true
Method=Blend

[Directional Pyramid Denoising]
Enabled=true
Enhance=false
Median=false
Luma=0
Ldetail=0
Chroma=0
Method=Lab
LMethod=SLI
CMethod=AUT
C2Method=AUTO
SMethod=shal
MedMethod=soft
RGBMethod=soft
MethodMed=Lonly
Redchro=0
Bluechro=0
Gamma=1.7
Passes=1
LCurve=0;
CCCurve=0;

[LensProfile]
LcMode=lfauto
UseDistortion=true
UseVignette=true
UseCA=false

[Color Management]
ToneCurve=false
ApplyLookTable=true
ApplyBaselineExposureOffset=true
ApplyHueSatMap=true
DCPIlluminant=0

[RAW]
CA=true
HotPixelFilter=true
